assets/icons/check-box.svg

<svg width="16" height="16" viewBox="0 0 16 16" fill="none" xmlns="http://www.w3.org/2000/svg">
<path d="M2.89844 7.47175L5.87436 9.84304L13.286 3.01423C13.286 3.01423 13.7835 2.56031 14.2174 2.91437C14.3464 3.0215 14.4953 3.3229 14.1593 3.7968L6.4227 12.8625C6.4227 12.8625 5.82897 13.6741 5.12448 12.8535L1.78543 8.34328C1.78543 8.34328 1.38961 7.73321 1.88529 7.36644C2.05233 7.24479 2.43363 7.05414 2.89844 7.47175Z" fill="#3971F3"/>
</svg>

<svg xmlns="http://www.w3.org/2000/svg" width="16" height="16" fill="none" data-c="1"><path fill="#3971F3" d="m2.898 7.472 2.976 2.371 7.412-6.829s.498-.454.931-.1c.13.107.278.409-.058.883l-7.736 9.066s-.594.811-1.299-.01l-3.339-4.51s-.395-.61.1-.977c.167-.121.549-.312 1.013.106"/></svg>
